communes/2883.svg

<?xml version="1.0" encoding="UTF-8"?>
<svg width="525" height="612" version="1.1" viewBox="0 0 3500 4080" xmlns="http://www.w3.org/2000/svg" xmlns:cc="http://creativecommons.org/ns#" xmlns:dc="http://purl.org/dc/elements/1.1/" xmlns:rdf="http://www.w3.org/1999/02/22-rdf-syntax-ns#" xmlns:xlink="http://www.w3.org/1999/xlink">
<metadata>
<rdf:RDF>
<cc:Work rdf:about="">
<dc:format>image/svg+xml</dc:format>
<dc:type rdf:resource="http://purl.org/dc/dcmitype/StillImage"/>
</cc:Work>
</rdf:RDF>
</metadata>
<title>Wappen von Bretzwil</title>
<desc>Wappen der Schweizer Gemeinde Bretzwil, Kanton Baselland</desc>
<g stroke="#000" stroke-width="40">
<path d="m20 20h3460v2310a1710 1710 0 0 1-3460 0z" fill="#ffd400"/>
<use transform="matrix(-1,0,0,1,3500,0)" xlink:href="#a"/>
<g id="a" transform="matrix(.74 -.67 .67 .74 270 293)" fill="#e2001a">
<path d="m-176 1480c-8-167-48-274-130-364-63-70-115-102-159-62-86 78 198 249 13 405-49-159-149-164-266-262-160-135-242-339-61-512 159-160 707-133 707 795 0-618-220-695-213-1021 5-228 164-360 285-459 121 99 280 231 285 459 7 326-213 403-213 1021 0-928 563-933 707-795 181 173 99 377-61 512-117 98-217 103-266 262-185-156 99-327 13-405-44-40-96-8-159 62-82 90-122 197-130 364"/>
<path d="m-155 1670v1500c0 300-33 499-96 719 251 236 251 236 502 0-63-220-96-419-96-719v-1500m-406 2219h502"/>
<path d="m-270 1440h540v310h-540z"/>
<path d="m-380 1530h760v130h-760z"/>
</g>
</g>
</svg>

<?xml version="1.0" encoding="UTF-8" standalone="no"?>
<svg
   xmlns:dc="http://purl.org/dc/elements/1.1/"
   xmlns:cc="http://creativecommons.org/ns#"
   xmlns:rdf="http://www.w3.org/1999/02/22-rdf-syntax-ns#"
   xmlns:svg="http://www.w3.org/2000/svg"
   xmlns="http://www.w3.org/2000/svg"
   xmlns:xlink="http://www.w3.org/1999/xlink"
   xmlns:sodipodi="http://sodipodi.sourceforge.net/DTD/sodipodi-0.dtd"
   xmlns:inkscape="http://www.inkscape.org/namespaces/inkscape"
   version="1.1"
   width="525"
   height="612"
   viewBox="0 0 3500 4080"
   id="svg21"
   sodipodi:docname="2883.svg">
  <metadata
     id="metadata27">
    <rdf:RDF>
      <cc:Work
         rdf:about="">
        <dc:format>image/svg+xml</dc:format>
        <dc:type
           rdf:resource="http://purl.org/dc/dcmitype/StillImage" />
      </cc:Work>
    </rdf:RDF>
  </metadata>
  <defs
     id="defs25" />
  <sodipodi:namedview
     pagecolor="#ffffff"
     bordercolor="#666666"
     borderopacity="1"
     objecttolerance="10"
     gridtolerance="10"
     guidetolerance="10"
     inkscape:pageopacity="0"
     inkscape:pageshadow="2"
     inkscape:window-width="640"
     inkscape:window-height="480"
     id="namedview23" />
  <title
     id="title2">Wappen von Bretzwil</title>
  <desc
     id="desc4">Wappen der Schweizer Gemeinde Bretzwil, Kanton Baselland</desc>
  <g
     stroke="black"
     stroke-width="40"
     id="g19">
    <path
       d="M 20,20 H 3480 V 2330 A 1710 1710 0 0 1 20,2330 z"
       fill="#ffd400"
       id="path6" />
    <use
       xlink:href="#zepter"
       transform="matrix(-1,0,0,1,3500,0)"
       id="use8" />
    <g
       id="zepter"
       fill="#e2001a"
       transform="matrix(0.74,-0.67,0.67,0.74,270,293)">
      <path
         d="M -176,1480 c -8,-167 -48,-274 -130,-364 -63,-70 -115,-102 -159,-62 -86,78 198,249 13,405 -49,-159 -149,-164 -266,-262 -160,-135 -242,-339 -61,-512 159,-160 707,-133 707,795 0,-618 -220,-695 -213,-1021 5,-228 164,-360 285,-459 121,99 280,231 285,459 7,326 -213,403 -213,1021 0,-928 563,-933 707,-795 181,173 99,377 -61,512 -117,98 -217,103 -266,262 -185,-156 99,-327 13,-405 -44,-40 -96,-8 -159,62 -82,90 -122,197 -130,364"
         id="path10" />
      <path
         d="M -155,1670 V 3170 c 0,300 -33,499 -96,719 251,236 251,236 502,0 -63,-220 -96,-419 -96,-719 V 1670 M -251,3889 H 251"
         id="path12" />
      <path
         d="M -270,1440 H 270 v 310 H -270 z"
         id="path14" />
      <path
         d="M -380,1530 H 380 v 130 H -380 z"
         id="path16" />
    </g>
  </g>
</svg>
